packages/merlin-www-assets/imports/gq/icons/figure-zoom.svg

<svg viewBox="0 0 16 16" xmlns="http://www.w3.org/2000/svg"><title>Zoom</title><path d="m15.28 16-4.55-4.55a6.51 6.51 0 1 1 .71-.71l4.56 4.54zm-8.78-15a5.5 5.5 0 1 0 5.5 5.5 5.51 5.51 0 0 0 -5.5-5.5zm.5 8.5h-1v-2.5h-2.5v-1h2.5v-2.5h1v2.5h2.5v1h-2.5z"/></svg>

<svg viewBox="0 0 16 16"><title>Zoom</title><path d="M15.28 16l-4.55-4.55a6.51 6.51 0 11.71-.71L16 15.28zM6.5 1A5.5 5.5 0 1012 6.5 5.51 5.51 0 006.5 1zM7 9.5H6V7H3.5V6H6V3.5h1V6h2.5v1H7z"/></svg>
